lib/logo_tmp/nrk-logo-nrk-p3-x-title-below-on-light.svg

<svg width="54" height="36" viewBox="0 0 54 36" fill="none" xmlns="http://www.w3.org/2000/svg">
<rect x="3.46155" y="3.46155" width="29.0769" height="29.0769" fill="white"/>
<path fill-rule="evenodd" clip-rule="evenodd" d="M0 0H36V36H0V0ZM11.6262 15.9996H8.30773V28.0564H11.6262V15.9996ZM15.8337 15.9996H12.1072C12.1072 15.9996 14.2244 19.4705 14.2483 19.5142C14.4105 19.7894 14.4204 19.9584 14.262 20.2239L12.1072 23.7516H15.8337C15.8337 23.7516 17.6306 20.817 17.8763 20.4097C18.1202 20.0021 18.1092 19.7488 17.8665 19.3304C17.6186 18.9087 17.6025 18.8825 16.1454 16.5075L16.144 16.5052L16.1437 16.5048L16.1436 16.5046L15.8337 15.9996ZM26.27 15.9996C26.27 15.9996 27.379 17.7839 27.5044 17.9971C27.7478 18.4168 27.7588 18.6707 27.5141 19.0796C27.3432 19.363 25.8771 21.7893 25.8771 21.7893C26.1457 22.2277 26.5036 22.801 26.8178 23.3045L26.8183 23.3052C27.141 23.8225 27.4177 24.2658 27.5042 24.413C27.7477 24.8327 27.7587 25.0866 27.5141 25.4955C27.4674 25.5729 27.3725 25.7322 27.248 25.9412L27.248 25.9412L27.2468 25.9432L27.2464 25.944L27.2459 25.9448C26.9142 26.5015 26.3745 27.4076 25.9773 28.0564H22.5724L24.4367 24.9966L22.5031 21.7554L24.2371 18.9179H20.0365L18.2943 15.9996H26.27ZM19.8319 22.1909C19.3071 23.0471 18.4292 24.4818 18.2649 24.7616C18.0304 25.1658 18.0198 25.4104 18.2555 25.8042C18.4199 26.0771 19.3048 27.5232 19.832 28.3845C20.3593 27.5231 21.2441 26.077 21.4086 25.8042C21.6442 25.4103 21.6336 25.1658 21.3992 24.7616C21.2346 24.4818 20.3566 23.0471 19.8319 22.1909ZM18.3587 9.81044C18.5653 9.93131 18.8008 9.99394 19.0402 9.99164C19.2782 9.99442 19.5125 9.93173 19.7174 9.81044C19.9193 9.69157 20.0868 9.52236 20.2038 9.31937C20.3247 9.11265 20.3873 8.87709 20.3851 8.63763C20.3877 8.39963 20.325 8.16547 20.2038 7.96063C20.0856 7.75985 19.9182 7.59247 19.7174 7.47433C19.5125 7.35325 19.2783 7.29058 19.0403 7.29314C18.8009 7.29096 18.5654 7.35358 18.3587 7.47433C18.1558 7.59145 17.9866 7.75896 17.8675 7.96063C17.7462 8.16542 17.6835 8.39961 17.6862 8.63763C17.6838 8.87711 17.7465 9.11271 17.8675 9.31937C17.9854 9.52325 18.1547 9.69261 18.3587 9.81044ZM10.7024 7.43147H8.30773V14.2139H10.7024V7.43147ZM12.3852 14.2139L10.8465 7.43147L12.3755 7.4313C12.694 7.42616 13.0035 7.53654 13.246 7.74177C13.4868 7.93892 13.6488 8.21511 13.7026 8.52048L14.9913 14.2139H12.3852ZM17.5306 14.2139H15.1357V7.43147H17.5306V14.2139ZM22.9256 14.2139H20.531V7.43147H22.9256V14.2139ZM25.0573 7.43147H27.6923L25.7978 10.517C25.735 10.6071 25.6999 10.7133 25.6968 10.8229C25.7077 10.9352 25.7457 11.0433 25.8074 11.1381C25.8138 11.1445 25.8619 11.2224 25.9516 11.372C26.0414 11.5218 26.1584 11.7144 26.3027 11.9499C26.4469 12.1855 26.5992 12.4323 26.7595 12.6904C26.9198 12.9484 27.0704 13.1935 27.2115 13.426C27.3525 13.6584 27.5128 13.9212 27.6923 14.2141H25.0573C24.9034 13.9656 24.7655 13.7411 24.6437 13.5405C24.522 13.34 24.389 13.1234 24.2446 12.8909C24.1002 12.6583 23.9609 12.4323 23.8264 12.2128C23.6919 11.9932 23.5749 11.8005 23.4754 11.6349C23.3759 11.4692 23.307 11.3577 23.2686 11.3005C23.1787 11.1559 23.1242 10.9923 23.1098 10.8229C23.1174 10.6551 23.1724 10.4929 23.2686 10.3548C23.307 10.2975 23.3759 10.186 23.4754 10.0204C23.5747 9.85464 23.6917 9.66194 23.8264 9.44233C23.9612 9.22272 24.1006 8.9951 24.2446 8.75946C24.3889 8.52383 24.5219 8.3057 24.6437 8.10509C24.7655 7.90448 24.9034 7.67995 25.0573 7.43147Z" fill="black"/>
<path d="M53.5412 25.0066L48.7069 17.7023L53.1235 11.0034H50.914L47.7054 16.3358L44.1855 11.0034H41.7574L46.2934 17.7996L41.5385 25.0063H43.7877L47.3278 19.2512L51.1327 25.0063L53.5412 25.0066Z" fill="black"/>
</svg>

<svg xmlns="http://www.w3.org/2000/svg" viewBox="0 0 54 36"><path fill="#fff" d="M3.462 3.462h29.077v29.077H3.462z"/><path fill="#000" fill-rule="evenodd" d="M0 0h36v36H0V0Zm11.626 16H8.308v12.056h3.318V16Zm4.208 0h-3.727s2.117 3.47 2.141 3.514c.163.275.172.444.014.71l-2.155 3.528h3.727s1.797-2.935 2.042-3.342c.244-.408.233-.661-.01-1.08-.247-.421-.264-.447-1.72-2.822l-.002-.003-.31-.505Zm10.436 0s1.109 1.784 1.234 1.997c.244.42.255.674.01 1.083l-1.637 2.71c.269.438.627 1.011.94 1.515h.001c.323.518.6.96.686 1.108.244.42.255.674.01 1.082l-.266.446-.001.002v.001h-.001c-.332.558-.871 1.464-1.269 2.112h-3.405l1.865-3.06-1.934-3.24 1.734-2.838h-4.2L18.294 16h7.976Zm-6.438 6.19c-.525.857-1.403 2.292-1.567 2.572-.235.404-.245.648-.01 1.042.165.273 1.05 1.72 1.577 2.58.527-.86 1.412-2.307 1.577-2.58.235-.394.225-.638-.01-1.042-.164-.28-1.042-1.715-1.567-2.571ZM18.359 9.81c.206.121.442.184.681.182a1.3 1.3 0 0 0 .677-.182 1.355 1.355 0 0 0 .668-1.172 1.302 1.302 0 0 0-.181-.677 1.372 1.372 0 0 0-.487-.487 1.303 1.303 0 0 0-.677-.18 1.36 1.36 0 0 0-1.173.667 1.3 1.3 0 0 0-.18.677 1.344 1.344 0 0 0 .672 1.173Zm-7.657-2.379H8.308v6.783h2.394V7.43Zm1.683 6.783L10.847 7.43h1.529c.318-.005.628.106.87.31.24.198.403.474.457.78l1.288 5.693h-2.606Zm5.146 0h-2.395V7.43h2.395v6.783Zm5.395 0H20.53V7.43h2.395v6.783Zm2.131-6.783h2.635l-1.894 3.086a.563.563 0 0 0-.101.306c.01.112.049.22.11.315.007.007.055.084.145.234l.35.578.457.74c.16.258.311.504.453.736.14.232.3.495.48.788h-2.635a90.625 90.625 0 0 1-.413-.674c-.122-.2-.255-.417-.4-.65a136.475 136.475 0 0 1-.769-1.255 9.532 9.532 0 0 0-.206-.335 1.077 1.077 0 0 1-.16-.477.89.89 0 0 1 .16-.468c.038-.058.107-.169.206-.335l.351-.578a406.076 406.076 0 0 0 .818-1.337l.413-.674Z" clip-rule="evenodd"/><path fill="#000" d="m53.541 25.007-4.834-7.305 4.416-6.699h-2.209l-3.209 5.333-3.52-5.333h-2.428l4.536 6.797-4.755 7.206h2.25l3.54-5.755 3.805 5.755h2.408Z"/></svg>
